images/16757745.svg

<?xml version="1.0" encoding="UTF-8"?>
<svg xmlns="http://www.w3.org/2000/svg" xmlns:xlink="http://www.w3.org/1999/xlink" width="300pt" height="300pt" viewBox="0 0 300 300" version="1.1">
<defs>
<g>
<symbol overflow="visible" id="glyph0-0">
<path style="stroke:none;" d="M 0.796875 2.828125 L 0.796875 -11.28125 L 8.796875 -11.28125 L 8.796875 2.828125 Z M 1.703125 1.9375 L 7.90625 1.9375 L 7.90625 -10.390625 L 1.703125 -10.390625 Z M 1.703125 1.9375 "/>
</symbol>
<symbol overflow="visible" id="glyph0-1">
<path style="stroke:none;" d="M 1.578125 -11.671875 L 3.703125 -11.671875 L 8.875 -1.90625 L 8.875 -11.671875 L 10.40625 -11.671875 L 10.40625 0 L 8.28125 0 L 3.109375 -9.765625 L 3.109375 0 L 1.578125 0 Z M 1.578125 -11.671875 "/>
</symbol>
<symbol overflow="visible" id="glyph0-2">
<path style="stroke:none;" d="M 6.3125 -10.59375 C 5.164062 -10.59375 4.253906 -10.164062 3.578125 -9.3125 C 2.898438 -8.457031 2.5625 -7.296875 2.5625 -5.828125 C 2.5625 -4.359375 2.898438 -3.195312 3.578125 -2.34375 C 4.253906 -1.488281 5.164062 -1.0625 6.3125 -1.0625 C 7.457031 -1.0625 8.363281 -1.488281 9.03125 -2.34375 C 9.695312 -3.195312 10.03125 -4.359375 10.03125 -5.828125 C 10.03125 -7.296875 9.695312 -8.457031 9.03125 -9.3125 C 8.363281 -10.164062 7.457031 -10.59375 6.3125 -10.59375 Z M 6.3125 -11.875 C 7.945312 -11.875 9.253906 -11.328125 10.234375 -10.234375 C 11.210938 -9.140625 11.703125 -7.671875 11.703125 -5.828125 C 11.703125 -3.984375 11.210938 -2.507812 10.234375 -1.40625 C 9.253906 -0.3125 7.945312 0.234375 6.3125 0.234375 C 4.664062 0.234375 3.351562 -0.3125 2.375 -1.40625 C 1.394531 -2.507812 0.90625 -3.984375 0.90625 -5.828125 C 0.90625 -7.671875 1.394531 -9.140625 2.375 -10.234375 C 3.351562 -11.328125 4.664062 -11.875 6.3125 -11.875 Z M 6.3125 -11.875 "/>
</symbol>
<symbol overflow="visible" id="glyph0-3">
<path style="stroke:none;" d="M 1.578125 -11.671875 L 3.15625 -11.671875 L 3.15625 -6.890625 L 8.890625 -6.890625 L 8.890625 -11.671875 L 10.46875 -11.671875 L 10.46875 0 L 8.890625 0 L 8.890625 -5.5625 L 3.15625 -5.5625 L 3.15625 0 L 1.578125 0 Z M 1.578125 -11.671875 "/>
</symbol>
</g>
</defs>
<g id="surface52281">
<rect x="0" y="0" width="300" height="300" style="fill:rgb(100%,100%,100%);fill-opacity:1;stroke:none;"/>
<path style="fill:none;stroke-width:1.2;stroke-linecap:butt;stroke-linejoin:miter;stroke:rgb(0%,0%,0%);stroke-opacity:1;stroke-miterlimit:10;" d="M 42.339844 127.363281 L 74.617188 147.886719 "/>
<path style=" stroke:none;fill-rule:nonzero;fill:rgb(0%,0%,0%);fill-opacity:1;" d="M 72.984375 186.101562 L 81.363281 148.175781 L 67.875 147.597656 Z M 72.984375 186.101562 "/>
<path style="fill:none;stroke-width:1.2;stroke-linecap:butt;stroke-linejoin:miter;stroke:rgb(0%,0%,0%);stroke-opacity:1;stroke-miterlimit:10;" d="M 72.984375 186.101562 L 39.070312 203.792969 "/>
<path style="fill:none;stroke-width:1.2;stroke-linecap:butt;stroke-linejoin:miter;stroke:rgb(0%,0%,0%);stroke-opacity:1;stroke-miterlimit:10;" d="M 105.261719 206.625 L 72.984375 186.101562 "/>
<path style="fill:none;stroke-width:1.2;stroke-linecap:butt;stroke-linejoin:miter;stroke:rgb(0%,0%,0%);stroke-opacity:1;stroke-miterlimit:10;" d="M 76.777344 148.039062 L 72.984375 186.101562 "/>
<path style="fill:none;stroke-width:1.2;stroke-linecap:butt;stroke-linejoin:miter;stroke:rgb(0%,0%,0%);stroke-opacity:1;stroke-miterlimit:10;" d="M 39.070312 203.792969 L 37.4375 242.007812 "/>
<path style="fill:none;stroke-width:1.2;stroke-linecap:butt;stroke-linejoin:miter;stroke:rgb(0%,0%,0%);stroke-opacity:1;stroke-miterlimit:10;" d="M 37.4375 242.007812 L 69.714844 262.53125 "/>
<path style="fill:none;stroke-width:1.2;stroke-linecap:butt;stroke-linejoin:miter;stroke:rgb(0%,0%,0%);stroke-opacity:1;stroke-miterlimit:10;" d="M 69.714844 262.53125 L 86.667969 253.6875 "/>
<path style="fill:none;stroke-width:1.2;stroke-linecap:butt;stroke-linejoin:miter;stroke:rgb(0%,0%,100%);stroke-opacity:1;stroke-miterlimit:10;" d="M 86.667969 253.6875 L 103.625 244.839844 "/>
<path style="fill:none;stroke-width:1.2;stroke-linecap:butt;stroke-linejoin:miter;stroke:rgb(0%,0%,100%);stroke-opacity:1;stroke-miterlimit:10;" d="M 103.625 244.839844 L 104.445312 225.734375 "/>
<path style="fill:none;stroke-width:1.2;stroke-linecap:butt;stroke-linejoin:miter;stroke:rgb(0%,0%,0%);stroke-opacity:1;stroke-miterlimit:10;" d="M 104.445312 225.734375 L 105.261719 206.625 "/>
<path style="fill:none;stroke-width:1.2;stroke-linecap:butt;stroke-linejoin:miter;stroke:rgb(0%,0%,0%);stroke-opacity:1;stroke-miterlimit:10;" d="M 135.902344 265.363281 L 119.765625 255.101562 "/>
<path style="fill:none;stroke-width:1.2;stroke-linecap:butt;stroke-linejoin:miter;stroke:rgb(0%,0%,100%);stroke-opacity:1;stroke-miterlimit:10;" d="M 119.765625 255.101562 L 103.625 244.839844 "/>
<path style=" stroke:none;fill-rule:nonzero;fill:rgb(100%,100%,100%);fill-opacity:1;" d="M 97.625 235.339844 L 109.625 235.339844 L 109.625 254.339844 L 97.625 254.339844 Z M 97.625 235.339844 "/>
<g style="fill:rgb(0%,0%,100%);fill-opacity:1;">
  <use xlink:href="#glyph0-1" x="97.625" y="250.191406"/>
</g>
<path style="fill:none;stroke-width:1.2;stroke-linecap:butt;stroke-linejoin:miter;stroke:rgb(0%,0%,0%);stroke-opacity:1;stroke-miterlimit:10;" d="M 105.261719 206.625 L 139.171875 188.933594 "/>
<path style="fill:none;stroke-width:1.2;stroke-linecap:butt;stroke-linejoin:miter;stroke:rgb(0%,0%,0%);stroke-opacity:1;stroke-miterlimit:10;" d="M 139.171875 188.933594 L 171.453125 209.457031 "/>
<path style="fill:none;stroke-width:1.2;stroke-linecap:butt;stroke-linejoin:miter;stroke:rgb(0%,0%,0%);stroke-opacity:1;stroke-miterlimit:10;" d="M 147.230469 183.390625 L 173.050781 199.808594 "/>
<path style="fill:none;stroke-width:1.2;stroke-linecap:butt;stroke-linejoin:miter;stroke:rgb(0%,0%,100%);stroke-opacity:1;stroke-miterlimit:10;" d="M 148.71875 151.894531 L 143.945312 170.414062 "/>
<path style="fill:none;stroke-width:1.2;stroke-linecap:butt;stroke-linejoin:miter;stroke:rgb(0%,0%,0%);stroke-opacity:1;stroke-miterlimit:10;" d="M 143.945312 170.414062 L 139.171875 188.933594 "/>
<path style="fill:none;stroke-width:1.2;stroke-linecap:butt;stroke-linejoin:miter;stroke:rgb(0%,0%,0%);stroke-opacity:1;stroke-miterlimit:10;" d="M 171.453125 209.457031 L 169.816406 247.671875 "/>
<path style="fill:none;stroke-width:1.2;stroke-linecap:butt;stroke-linejoin:miter;stroke:rgb(0%,0%,0%);stroke-opacity:1;stroke-miterlimit:10;" d="M 171.453125 209.457031 L 200.945312 185.101562 "/>
<path style="fill:none;stroke-width:1.2;stroke-linecap:butt;stroke-linejoin:miter;stroke:rgb(0%,0%,0%);stroke-opacity:1;stroke-miterlimit:10;" d="M 169.816406 247.671875 L 135.902344 265.363281 "/>
<path style="fill:none;stroke-width:1.2;stroke-linecap:butt;stroke-linejoin:miter;stroke:rgb(0%,0%,0%);stroke-opacity:1;stroke-miterlimit:10;" d="M 200.945312 185.101562 L 238.78125 190.722656 "/>
<path style="fill:none;stroke-width:1.2;stroke-linecap:butt;stroke-linejoin:miter;stroke:rgb(0%,0%,0%);stroke-opacity:1;stroke-miterlimit:10;" d="M 206.050781 176.761719 L 236.320312 181.257812 "/>
<path style="fill:none;stroke-width:1.2;stroke-linecap:butt;stroke-linejoin:miter;stroke:rgb(0%,0%,0%);stroke-opacity:1;stroke-miterlimit:10;" d="M 186.894531 149.523438 L 200.945312 185.101562 "/>
<path style="fill:none;stroke-width:1.2;stroke-linecap:butt;stroke-linejoin:miter;stroke:rgb(0%,0%,0%);stroke-opacity:1;stroke-miterlimit:10;" d="M 238.78125 190.722656 L 262.5625 160.765625 "/>
<path style="fill:none;stroke-width:1.2;stroke-linecap:butt;stroke-linejoin:miter;stroke:rgb(0%,0%,0%);stroke-opacity:1;stroke-miterlimit:10;" d="M 262.5625 160.765625 L 248.515625 125.191406 "/>
<path style="fill:none;stroke-width:1.2;stroke-linecap:butt;stroke-linejoin:miter;stroke:rgb(0%,0%,0%);stroke-opacity:1;stroke-miterlimit:10;" d="M 252.789062 160.515625 L 241.546875 132.054688 "/>
<path style="fill:none;stroke-width:1.2;stroke-linecap:butt;stroke-linejoin:miter;stroke:rgb(0%,0%,0%);stroke-opacity:1;stroke-miterlimit:10;" d="M 248.515625 125.191406 L 210.679688 119.570312 "/>
<path style="fill:none;stroke-width:1.2;stroke-linecap:butt;stroke-linejoin:miter;stroke:rgb(0%,0%,0%);stroke-opacity:1;stroke-miterlimit:10;" d="M 210.679688 119.570312 L 186.894531 149.523438 "/>
<path style="fill:none;stroke-width:1.2;stroke-linecap:butt;stroke-linejoin:miter;stroke:rgb(0%,0%,0%);stroke-opacity:1;stroke-miterlimit:10;" d="M 215.347656 128.160156 L 196.320312 152.125 "/>
<path style="fill:none;stroke-width:1.2;stroke-linecap:butt;stroke-linejoin:miter;stroke:rgb(0%,0%,0%);stroke-opacity:1;stroke-miterlimit:10;" d="M 186.894531 149.523438 L 167.804688 150.710938 "/>
<path style="fill:none;stroke-width:1.2;stroke-linecap:butt;stroke-linejoin:miter;stroke:rgb(0%,0%,100%);stroke-opacity:1;stroke-miterlimit:10;" d="M 167.804688 150.710938 L 148.71875 151.894531 "/>
<path style="fill:none;stroke-width:1.2;stroke-linecap:butt;stroke-linejoin:miter;stroke:rgb(0%,0%,100%);stroke-opacity:1;stroke-miterlimit:10;" d="M 148.71875 151.894531 L 130.175781 142.09375 "/>
<path style="fill:none;stroke-width:1.2;stroke-linecap:butt;stroke-linejoin:miter;stroke:rgb(0%,0%,0%);stroke-opacity:1;stroke-miterlimit:10;" d="M 130.175781 142.09375 L 111.636719 132.296875 "/>
<path style=" stroke:none;fill-rule:nonzero;fill:rgb(100%,100%,100%);fill-opacity:1;" d="M 142.71875 142.394531 L 154.71875 142.394531 L 154.71875 161.394531 L 142.71875 161.394531 Z M 142.71875 142.394531 "/>
<g style="fill:rgb(0%,0%,100%);fill-opacity:1;">
  <use xlink:href="#glyph0-1" x="142.71875" y="157.246094"/>
</g>
<path style="fill:none;stroke-width:1.2;stroke-linecap:butt;stroke-linejoin:miter;stroke:rgb(0%,0%,0%);stroke-opacity:1;stroke-miterlimit:10;" d="M 111.636719 132.296875 L 76.777344 148.039062 "/>
<path style=" stroke:none;fill-rule:nonzero;fill:rgb(0%,0%,0%);fill-opacity:1;" d="M 111.636719 132.296875 L 95.652344 96.894531 L 84.5 104.503906 Z M 111.636719 132.296875 "/>
<path style="fill:none;stroke-width:1.2;stroke-linecap:butt;stroke-linejoin:miter;stroke:rgb(0%,0%,0%);stroke-opacity:1;stroke-miterlimit:10;" d="M 111.636719 132.296875 L 125.320312 118.9375 "/>
<path style="fill:none;stroke-width:1.2;stroke-linecap:butt;stroke-linejoin:miter;stroke:rgb(100%,0%,0%);stroke-opacity:1;stroke-miterlimit:10;" d="M 125.320312 118.9375 L 139.007812 105.578125 "/>
<path style="fill:none;stroke-width:1.2;stroke-linecap:butt;stroke-linejoin:miter;stroke:rgb(0%,0%,0%);stroke-opacity:1;stroke-miterlimit:10;" d="M 89.738281 96.210938 L 70.667969 97.648438 "/>
<path style="fill:none;stroke-width:1.2;stroke-linecap:butt;stroke-linejoin:miter;stroke:rgb(100%,0%,0%);stroke-opacity:1;stroke-miterlimit:10;" d="M 70.667969 97.648438 L 51.597656 99.085938 "/>
<path style="fill:none;stroke-width:1.2;stroke-linecap:butt;stroke-linejoin:miter;stroke:rgb(0%,0%,0%);stroke-opacity:1;stroke-miterlimit:10;" d="M 90.414062 105.1875 L 71.34375 106.625 "/>
<path style="fill:none;stroke-width:1.2;stroke-linecap:butt;stroke-linejoin:miter;stroke:rgb(100%,0%,0%);stroke-opacity:1;stroke-miterlimit:10;" d="M 71.34375 106.625 L 52.273438 108.058594 "/>
<path style="fill:none;stroke-width:1.2;stroke-linecap:butt;stroke-linejoin:miter;stroke:rgb(0%,0%,0%);stroke-opacity:1;stroke-miterlimit:10;" d="M 90.078125 100.699219 L 98.367188 83.464844 "/>
<path style="fill:none;stroke-width:1.2;stroke-linecap:butt;stroke-linejoin:miter;stroke:rgb(100%,0%,0%);stroke-opacity:1;stroke-miterlimit:10;" d="M 98.367188 83.464844 L 106.660156 66.230469 "/>
<path style=" stroke:none;fill-rule:nonzero;fill:rgb(100%,100%,100%);fill-opacity:1;" d="M 38.933594 94.074219 L 51.933594 94.074219 L 51.933594 113.074219 L 38.933594 113.074219 Z M 38.933594 94.074219 "/>
<g style="fill:rgb(100%,0%,0%);fill-opacity:1;">
  <use xlink:href="#glyph0-2" x="38.933594" y="108.925781"/>
</g>
<path style="fill:none;stroke-width:1.2;stroke-linecap:butt;stroke-linejoin:miter;stroke:rgb(100%,0%,0%);stroke-opacity:1;stroke-miterlimit:10;" d="M 106.660156 66.230469 L 95.878906 50.433594 "/>
<path style="fill:none;stroke-width:1.2;stroke-linecap:butt;stroke-linejoin:miter;stroke:rgb(0%,0%,0%);stroke-opacity:1;stroke-miterlimit:10;" d="M 95.878906 50.433594 L 85.101562 34.636719 "/>
<path style=" stroke:none;fill-rule:nonzero;fill:rgb(100%,100%,100%);fill-opacity:1;" d="M 100.660156 56.730469 L 113.660156 56.730469 L 113.660156 75.730469 L 100.660156 75.730469 Z M 100.660156 56.730469 "/>
<g style="fill:rgb(100%,0%,0%);fill-opacity:1;">
  <use xlink:href="#glyph0-2" x="100.660156" y="71.582031"/>
</g>
<path style=" stroke:none;fill-rule:nonzero;fill:rgb(100%,100%,100%);fill-opacity:1;" d="M 127.007812 96.078125 L 152.007812 96.078125 L 152.007812 115.078125 L 127.007812 115.078125 Z M 127.007812 96.078125 "/>
<g style="fill:rgb(100%,0%,0%);fill-opacity:1;">
  <use xlink:href="#glyph0-2" x="127.007812" y="110.929688"/>
  <use xlink:href="#glyph0-3" x="139.601562" y="110.929688"/>
</g>
</g>
</svg>

<svg xmlns="http://www.w3.org/2000/svg" xmlns:xlink="http://www.w3.org/1999/xlink" width="300pt" height="300pt" viewBox="0 0 300 300"><defs><symbol overflow="visible"><path d="M.797 2.828v-14.11h8V2.83zm.906-.89h6.203v-12.33H1.703zm0 0"/></symbol><symbol overflow="visible" id="a"><path d="M1.578-11.672h2.125l5.172 9.766v-9.766h1.53V0H8.282L3.11-9.766V0H1.577zm0 0"/></symbol><symbol overflow="visible" id="b"><path d="M6.313-10.594c-1.15 0-2.06.43-2.735 1.28-.68.857-1.015 2.017-1.015 3.486 0 1.47.335 2.633 1.015 3.484.676.856 1.586 1.28 2.735 1.28 1.144.002 2.05-.424 2.718-1.28.665-.85 1-2.015 1-3.484 0-1.47-.335-2.63-1-3.484-.667-.852-1.573-1.282-2.717-1.282zm0-1.28c1.632 0 2.94.546 3.92 1.64.978 1.093 1.47 2.562 1.47 4.406 0 1.844-.492 3.32-1.47 4.422-.98 1.093-2.288 1.64-3.92 1.64-1.65 0-2.96-.546-3.938-1.64-.98-1.102-1.47-2.578-1.47-4.422 0-1.844.49-3.313 1.47-4.406.977-1.094 2.29-1.64 3.938-1.64zm0 0"/></symbol><symbol overflow="visible" id="c"><path d="M1.578-11.672h1.578v4.78H8.89v-4.78h1.58V0H8.89v-5.563H3.157V0H1.578zm0 0"/></symbol></defs><g><path fill="#fff" d="M0 0h300v300H0z"/><path d="M42.34 127.363l32.277 20.524" stroke-width="1.2" stroke="#000" stroke-miterlimit="10" fill="none"/><path d="M72.984 186.102l8.38-37.926-13.49-.578zm0 0"/><path d="M72.984 186.102l-33.914 17.69M105.262 206.625l-32.278-20.523M76.777 148.04L72.984 186.1M39.07 203.793l-1.633 38.215M37.438 242.008l32.277 20.523M69.715 262.53l16.953-8.842" stroke-width="1.2" stroke="#000" stroke-miterlimit="10" fill="none"/><path d="M86.668 253.688l16.957-8.848M103.625 244.84l.82-19.106" stroke-width="1.2" stroke="#00f" stroke-miterlimit="10" fill="none"/><path d="M104.445 225.734l.817-19.11M135.902 265.363l-16.136-10.26" stroke-width="1.2" stroke="#000" stroke-miterlimit="10" fill="none"/><path d="M119.766 255.102l-16.14-10.262" stroke-width="1.2" stroke="#00f" stroke-miterlimit="10" fill="none"/><path d="M97.625 235.34h12v19h-12zm0 0" fill="#fff"/><use xlink:href="#a" x="97.625" y="250.191" fill="#00f"/><path d="M105.262 206.625l33.91-17.69M139.172 188.934l32.28 20.523M147.23 183.39l25.82 16.42" stroke-width="1.2" stroke="#000" stroke-miterlimit="10" fill="none"/><path d="M148.72 151.895l-4.775 18.52" stroke-width="1.2" stroke="#00f" stroke-miterlimit="10" fill="none"/><path d="M143.945 170.414l-4.773 18.52M171.453 209.457l-1.637 38.215M171.453 209.457l29.492-24.355M169.816 247.672l-33.914 17.69M200.945 185.102l37.836 5.62M206.05 176.762l30.27 4.496M186.895 149.523l14.05 35.58M238.78 190.723l23.782-29.957M262.563 160.766l-14.047-35.575M252.79 160.516l-11.243-28.46M248.516 125.19l-37.836-5.62M210.68 119.57l-23.785 29.953M215.348 128.16l-19.028 23.965M186.895 149.523l-19.09 1.188" stroke-width="1.2" stroke="#000" stroke-miterlimit="10" fill="none"/><path d="M167.805 150.71l-19.086 1.185M148.72 151.895l-18.544-9.8" stroke-width="1.2" stroke="#00f" stroke-miterlimit="10" fill="none"/><path d="M130.176 142.094l-18.54-9.797" stroke-width="1.2" stroke="#000" stroke-miterlimit="10" fill="none"/><path d="M142.72 142.395h12v19h-12zm0 0" fill="#fff"/><use xlink:href="#a" x="142.719" y="157.246" fill="#00f"/><path d="M111.637 132.297l-34.86 15.742" stroke-width="1.2" stroke="#000" stroke-miterlimit="10" fill="none"/><path d="M111.637 132.297L95.652 96.895l-11.152 7.61zm0 0"/><path d="M111.637 132.297l13.683-13.36" stroke-width="1.2" stroke="#000" stroke-miterlimit="10" fill="none"/><path d="M125.32 118.938l13.688-13.36" stroke-width="1.2" stroke="#f00" stroke-miterlimit="10" fill="none"/><path d="M89.738 96.21l-19.07 1.438" stroke-width="1.2" stroke="#000" stroke-miterlimit="10" fill="none"/><path d="M70.668 97.648l-19.07 1.438" stroke-width="1.2" stroke="#f00" stroke-miterlimit="10" fill="none"/><path d="M90.414 105.188l-19.07 1.437" stroke-width="1.2" stroke="#000" stroke-miterlimit="10" fill="none"/><path d="M71.344 106.625l-19.07 1.434" stroke-width="1.2" stroke="#f00" stroke-miterlimit="10" fill="none"/><path d="M90.078 100.7l8.29-17.235" stroke-width="1.2" stroke="#000" stroke-miterlimit="10" fill="none"/><path d="M98.367 83.465l8.293-17.235" stroke-width="1.2" stroke="#f00" stroke-miterlimit="10" fill="none"/><path d="M38.934 94.074h13v19h-13zm0 0" fill="#fff"/><use xlink:href="#b" x="38.934" y="108.926" fill="#f00"/><path d="M106.66 66.23L95.88 50.434" stroke-width="1.2" stroke="#f00" stroke-miterlimit="10" fill="none"/><path d="M95.88 50.434L85.1 34.637" stroke-width="1.2" stroke="#000" stroke-miterlimit="10" fill="none"/><path d="M100.66 56.73h13v19h-13zm0 0" fill="#fff"/><use xlink:href="#b" x="100.66" y="71.582" fill="#f00"/><path d="M127.008 96.078h25v19h-25zm0 0" fill="#fff"/><g fill="#f00"><use xlink:href="#b" x="127.008" y="110.93"/><use xlink:href="#c" x="139.602" y="110.93"/></g></g></svg>
